build/category/NFCOutline.svg

<svg xmlns="http://www.w3.org/2000/svg" fill="none" viewBox="0 0 24 24" focusable="false"><path d="M0 0H24V24H0z"/><path fill="#74767B" fill-rule="evenodd" d="M6 19C4.34314 19 3 17.6569 3 16L3 8C3 6.34315 4.34315 5 6 5L18 5C18.1036 5 18.2059 5.00525 18.3067 5.01549C19.8195 5.16912 21 6.4467 21 8L21 16C21 17.6569 19.6569 19 18 19L6 19ZM19.7 8C19.7 7.06112 18.9389 6.3 18 6.3L6 6.3C5.06112 6.3 4.3 7.06112 4.3 8L4.3 16C4.3 16.9389 5.06112 17.7 6 17.7L18 17.7C18.9389 17.7 19.7 16.9389 19.7 16L19.7 8ZM14.5609 14.9621C14.4202 15.2791 14.0404 15.3963 13.7296 15.2422C13.3977 15.0777 13.2747 14.6695 13.4185 14.328C13.7223 13.6064 13.8902 12.8136 13.8902 11.9815C13.8902 11.1622 13.7274 10.381 13.4324 9.66836C13.2913 9.32742 13.4149 8.92169 13.7456 8.75781C14.0577 8.60308 14.4392 8.72198 14.5787 9.04122C14.972 9.94165 15.1902 10.9361 15.1902 11.9815C15.1902 13.0425 14.9654 14.0511 14.5609 14.9621ZM11.4453 14.1101C11.7487 14.2605 12.1214 14.151 12.2529 13.8389C12.4934 13.2678 12.6263 12.6403 12.6263 11.9817C12.6263 11.3396 12.5 10.727 12.2707 10.1675C12.1413 9.85169 11.7657 9.73947 11.4599 9.89104C11.1241 10.0575 11.0072 10.4744 11.1311 10.8281C11.2576 11.1892 11.3263 11.5774 11.3263 11.9817C11.3263 12.3978 11.2535 12.7969 11.1199 13.1669C10.9917 13.5216 11.1074 13.9426 11.4453 14.1101ZM10.1101 12.0006C10.1101 12.3596 9.81904 12.6506 9.46006 12.6506C9.10107 12.6506 8.81006 12.3596 8.81006 12.0006C8.81006 11.6416 9.10107 11.3506 9.46006 11.3506C9.81904 11.3506 10.1101 11.6416 10.1101 12.0006Z"/></svg>

<svg xmlns="http://www.w3.org/2000/svg" fill="none" viewBox="0 0 24 24" focusable="false"><path fill="#74767B" fill-rule="evenodd" d="M6 19c-1.66 0-3-1.35-3-3V8c0-1.66 1.34-3 3-3h12c.1 0 .2 0 .3.01C19.81 5.16 21 6.44 21 8v8c0 1.65-1.35 3-3 3zM19.7 8c0-.94-.77-1.71-1.7-1.71H6c-.94 0-1.7.77-1.7 1.71v8c0 .93.76 1.7 1.7 1.7h12c.93 0 1.7-.77 1.7-1.7zm-5.98 7.24c.32.15.7.03.84-.28.4-.91.63-1.92.63-2.98 0-1.05-.22-2.04-.62-2.94a.61.61 0 0 0-.83-.29c-.33.17-.45.57-.31.91.29.72.46 1.5.46 2.32 0 .83-.17 1.62-.48 2.34-.14.34-.02.75.31.92m-2.28-1.13c.3.15.68.04.81-.28.24-.57.37-1.19.37-1.85 0-.65-.12-1.26-.35-1.82-.13-.31-.51-.43-.81-.27-.34.16-.46.58-.33.93.12.36.19.75.19 1.16s-.07.81-.21 1.18c-.12.36-.01.78.33.95M10.11 12c0 .35-.3.65-.66.65-.35 0-.64-.3-.64-.65 0-.36.29-.65.64-.65.36 0 .66.29.66.65"/></svg>
